X:53
T:Engelska efter Per Svensson
O:Scandinavia; Sweden; Skåne 
R:Engelska 
S:Blekinge Spelmansförbund
D:ARC EUCD 1108
F:http://bluerose.karenlmyers.org/wp/wp-content/uploads/2349.pdf
F:http://bluerose.karenlmyers.org/wp/wp-content/uploads/2349.abc
F:http://bluerose.karenlmyers.org/wp/tune-categories/engelska/
Z:http://BlueRoseMusic.org
Z:BlueRose Tune Number 2349
Z:Search BlueRose using the Tune Number
Z:Printed by Karen Myers
Z:<KarenMyers@BlueRoseMusic.org>
N:Skåne, SvL 53
N:Tune Number:    2349 - BlueRoseMusic.org
N:Tune Category: Scand - Engelska
Q:1/4=90
L:1/16
M:2/4
I:linebreak $
K:G
G2(DG) B2(GB) | d2(ed) (cB)(AG) | F2(DF) A2(FA) | (Ac)(BA) G4 :|$|: D2G2 B4 | B2(AB) (cB)(AG) | 
F2A2 d4 | (ed)(cA) G4 :|

